src/assets/twitter.svg

<svg fill="none" height="24" viewBox="0 0 24 24" width="24" xmlns="http://www.w3.org/2000/svg"><path d="m22.3999 5.54963c-.7656.34-1.588.5688-2.4512.672.8816-.528 1.5576-1.364 1.876-2.3608-.824.4888-1.7376.844-2.7104 1.036-.7784-.8296-1.8872-1.348-3.1144-1.348-2.3568 0-4.2672 1.9112-4.2672 4.2672 0 .3344.0384.6608.1104.972-3.54638-.1776-6.69038-1.8768-8.79598-4.4592-.3664.6304-.5768 1.3632-.5768 2.1464 0 1.48.7528 2.7864 1.8976 3.55117-.6992-.0224-1.3576-.21437-1.9328-.53357v.0536c0 2.06797 1.4704 3.79277 3.4232 4.18397-.3576.0976-.7352.1496-1.1248.1496-.2744 0-.5424-.0272-.8024-.076.5432 1.6952 2.1192 2.9296 3.9864 2.964-1.46 1.1448-3.3 1.8272-5.3 1.8272-.344 0-.684-.02-1.0184-.06 1.8888 1.2104 4.1312 1.9168 6.5416 1.9168 7.84958 0 12.14078-6.5024 12.14078-12.14157 0-.1848-.004-.3688-.012-.552.8344-.6024 1.5584-1.3536 2.1304-2.2088z" fill="#737373"/></svg>

<svg width="24" height="24" viewBox="0 0 24 24" fill="none" xmlns="http://www.w3.org/2000/svg">
<path d="M22.3999 5.54963C21.6343 5.88963 20.8119 6.11843 19.9487 6.22163C20.8303 5.69363 21.5063 4.85763 21.8247 3.86083C21.0007 4.34963 20.0871 4.70483 19.1143 4.89683C18.3359 4.06723 17.2271 3.54883 15.9999 3.54883C13.6431 3.54883 11.7327 5.46003 11.7327 7.81603C11.7327 8.15043 11.7711 8.47683 11.8431 8.78803C8.29672 8.61043 5.15272 6.91123 3.04712 4.32883C2.68072 4.95923 2.47032 5.69203 2.47032 6.47523C2.47032 7.95523 3.22312 9.26163 4.36792 10.0264C3.66872 10.004 3.01032 9.81203 2.43512 9.49283C2.43512 9.51123 2.43512 9.52803 2.43512 9.54643C2.43512 11.6144 3.90552 13.3392 5.85832 13.7304C5.50072 13.828 5.12312 13.88 4.73352 13.88C4.45912 13.88 4.19112 13.8528 3.93112 13.804C4.47432 15.4992 6.05032 16.7336 7.91752 16.768C6.45752 17.9128 4.61752 18.5952 2.61752 18.5952C2.27352 18.5952 1.93352 18.5752 1.59912 18.5352C3.48792 19.7456 5.73032 20.452 8.14072 20.452C15.9903 20.452 20.2815 13.9496 20.2815 8.31043C20.2815 8.12563 20.2775 7.94163 20.2695 7.75843C21.1039 7.15603 21.8279 6.40483 22.3999 5.54963Z" fill="#737373"/>
</svg>
